X:40
T: Gallagher's Frolics
S: M. Mulhaire
Z: B.Black
R: jig
M: 6/8
L: 1/8
K: Edor
D | EDE GFE | BAB dBA | BdB BAB | GFG AFD |
EDE GFE | BAB dBA | BAG FAF | GED E2 :|
B | e2 f gfe | g2 a bge | d^cd fed | f/g/ad fed |
e2 f gfe | d^ce dBA | BAG FAF | GED E2 :|
